suite-common/icons/assets/icons/fingerprint.svg

<svg width="64" height="64" viewBox="0 0 64 64" fill="none" xmlns="http://www.w3.org/2000/svg">
    <path d="M47.4932 11.92C47.2799 11.92 47.0665 11.8667 46.8799 11.76C41.7599 9.12 37.3332 8 32.0265 8C26.7465 8 21.7332 9.25334 17.1732 11.76C16.5332 12.1067 15.7332 11.8667 15.3599 11.2267C15.0132 10.5867 15.2532 9.76 15.8932 9.41334C20.8532 6.72 26.2932 5.33334 32.0265 5.33334C37.7065 5.33334 42.6665 6.58667 48.1065 9.38667C48.7732 9.73334 49.0132 10.5333 48.6665 11.1733C48.4265 11.6533 47.9732 11.92 47.4932 11.92ZM9.33321 25.92C9.06655 25.92 8.79988 25.84 8.55988 25.68C7.94655 25.2533 7.81321 24.4267 8.23988 23.8133C10.8799 20.08 14.2399 17.1467 18.2399 15.0933C26.6132 10.7733 37.3332 10.7467 45.7332 15.0667C49.7332 17.12 53.0932 20.0267 55.7332 23.7333C56.1599 24.32 56.0265 25.1733 55.4132 25.6C54.7999 26.0267 53.9732 25.8933 53.5465 25.28C51.1465 21.92 48.1065 19.28 44.5065 17.44C36.8532 13.52 27.0665 13.52 19.4399 17.4667C15.8132 19.3333 12.7732 22 10.3732 25.36C10.1599 25.7333 9.75988 25.92 9.33321 25.92ZM25.9999 58.1067C25.6532 58.1067 25.3065 57.9733 25.0665 57.7067C22.7465 55.3867 21.4932 53.8933 19.7065 50.6667C17.8665 47.3867 16.9065 43.3867 16.9065 39.0933C16.9065 31.1733 23.6799 24.72 31.9999 24.72C40.3199 24.72 47.0932 31.1733 47.0932 39.0933C47.0932 39.84 46.5065 40.4267 45.7599 40.4267C45.0132 40.4267 44.4265 39.84 44.4265 39.0933C44.4265 32.64 38.8532 27.3867 31.9999 27.3867C25.1465 27.3867 19.5732 32.64 19.5732 39.0933C19.5732 42.9333 20.4265 46.48 22.0532 49.36C23.7599 52.4267 24.9332 53.7333 26.9865 55.8133C27.4932 56.3467 27.4932 57.1733 26.9865 57.7067C26.6932 57.9733 26.3465 58.1067 25.9999 58.1067ZM45.1199 53.1733C41.9465 53.1733 39.1465 52.3733 36.8532 50.8C32.8799 48.1067 30.5065 43.7333 30.5065 39.0933C30.5065 38.3467 31.0932 37.76 31.8399 37.76C32.5865 37.76 33.1732 38.3467 33.1732 39.0933C33.1732 42.8533 35.0932 46.4 38.3465 48.5867C40.2399 49.8667 42.4532 50.48 45.1199 50.48C45.7599 50.48 46.8265 50.4 47.8932 50.2133C48.6132 50.08 49.3065 50.56 49.4399 51.3067C49.5732 52.0267 49.0932 52.72 48.3465 52.8533C46.8265 53.1467 45.4932 53.1733 45.1199 53.1733ZM39.7599 58.6667C39.6532 58.6667 39.5199 58.64 39.4132 58.6133C35.1732 57.44 32.3999 55.8667 29.4932 53.0133C25.7599 49.3067 23.7065 44.3733 23.7065 39.0933C23.7065 34.7733 27.3865 31.2533 31.9199 31.2533C36.4532 31.2533 40.1332 34.7733 40.1332 39.0933C40.1332 41.9467 42.6132 44.2667 45.6799 44.2667C48.7465 44.2667 51.2265 41.9467 51.2265 39.0933C51.2265 29.04 42.5599 20.88 31.8932 20.88C24.3199 20.88 17.3865 25.0933 14.2665 31.6267C13.2265 33.7867 12.6932 36.32 12.6932 39.0933C12.6932 41.1733 12.8799 44.4533 14.4799 48.72C14.7465 49.4133 14.3999 50.1867 13.7065 50.4267C13.0132 50.6933 12.2399 50.32 11.9999 49.6533C10.6932 46.16 10.0532 42.6933 10.0532 39.0933C10.0532 35.8933 10.6665 32.9867 11.8665 30.4533C15.4132 23.0133 23.2799 18.1867 31.8932 18.1867C44.0265 18.1867 53.8932 27.5467 53.8932 39.0667C53.8932 43.3867 50.2132 46.9067 45.6799 46.9067C41.1465 46.9067 37.4665 43.3867 37.4665 39.0667C37.4665 36.2133 34.9865 33.8933 31.9199 33.8933C28.8532 33.8933 26.3732 36.2133 26.3732 39.0667C26.3732 43.6267 28.1332 47.8933 31.3599 51.0933C33.8932 53.6 36.3199 54.9867 40.0799 56.0267C40.7999 56.2133 41.1999 56.96 41.0132 57.6533C40.8799 58.2667 40.3199 58.6667 39.7599 58.6667Z" fill="#FFFFFF"/>
</svg>

<svg fill="none" viewBox="0 0 64 64">
  <path fill="#FFF" d="M47.493 11.92c-.213 0-.427-.053-.613-.16C41.76 9.12 37.333 8 32.026 8c-5.28 0-10.293 1.253-14.853 3.76-.64.347-1.44.107-1.813-.533a1.35 1.35 0 0 1 .533-1.814c4.96-2.693 10.4-4.08 16.133-4.08 5.68 0 10.64 1.254 16.08 4.054.667.346.907 1.146.56 1.786-.24.48-.693.747-1.173.747Zm-38.16 14a1.33 1.33 0 0 1-1.093-2.107c2.64-3.733 6-6.666 10-8.72 8.373-4.32 19.093-4.346 27.493-.026 4 2.053 7.36 4.96 10 8.666.427.587.294 1.44-.32 1.867a1.33 1.33 0 0 1-1.866-.32c-2.4-3.36-5.44-6-9.04-7.84-7.654-3.92-17.44-3.92-25.067.027-3.627 1.866-6.667 4.533-9.067 7.893-.213.373-.613.56-1.04.56ZM26 58.107a1.25 1.25 0 0 1-.933-.4c-2.32-2.32-3.574-3.814-5.36-7.04-1.84-3.28-2.8-7.28-2.8-11.574 0-7.92 6.773-14.373 15.093-14.373s15.093 6.453 15.093 14.373a1.32 1.32 0 0 1-1.333 1.334 1.32 1.32 0 0 1-1.334-1.334c0-6.453-5.573-11.706-12.426-11.706-6.854 0-12.427 5.253-12.427 11.706 0 3.84.854 7.387 2.48 10.267 1.707 3.067 2.88 4.373 4.933 6.453a1.37 1.37 0 0 1 0 1.894c-.293.266-.64.4-.986.4Zm19.12-4.934c-3.173 0-5.973-.8-8.267-2.373-3.973-2.693-6.347-7.067-6.347-11.707a1.32 1.32 0 0 1 1.334-1.333 1.32 1.32 0 0 1 1.333 1.333c0 3.76 1.92 7.307 5.173 9.494 1.894 1.28 4.107 1.893 6.774 1.893.64 0 1.707-.08 2.773-.267a1.33 1.33 0 0 1 1.547 1.094 1.33 1.33 0 0 1-1.093 1.546c-1.52.294-2.854.32-3.227.32Zm-5.36 5.494a1.56 1.56 0 0 1-.347-.054c-4.24-1.173-7.013-2.746-9.92-5.6-3.733-3.706-5.787-8.64-5.787-13.92 0-4.32 3.68-7.84 8.214-7.84 4.533 0 8.213 3.52 8.213 7.84 0 2.854 2.48 5.174 5.547 5.174 3.066 0 5.547-2.32 5.547-5.174 0-10.053-8.667-18.213-19.334-18.213-7.573 0-14.506 4.213-17.627 10.747-1.04 2.16-1.573 4.693-1.573 7.466 0 2.08.187 5.36 1.787 9.627a1.302 1.302 0 0 1-.774 1.707A1.323 1.323 0 0 1 12 49.653c-1.307-3.493-1.947-6.96-1.947-10.56 0-3.2.613-6.106 1.813-8.64 3.547-7.44 11.414-12.266 20.027-12.266 12.133 0 22 9.36 22 20.88 0 4.32-3.68 7.84-8.213 7.84-4.533 0-8.213-3.52-8.213-7.84 0-2.854-2.48-5.174-5.547-5.174-3.067 0-5.547 2.32-5.547 5.174 0 4.56 1.76 8.826 4.987 12.026 2.533 2.507 4.96 3.894 8.72 4.934.72.186 1.12.933.933 1.626a1.301 1.301 0 0 1-1.253 1.014Z"/>
</svg>
